X: 1
T: Lady's Cup Of Tea, The
M: 4/4
L: 1/8
R: reel
K: Dmix
AddA cAGE | ABAG EGG2 | AddA cAGE | ABAG EDD2 :|
edcd egg2 | eaa2 egg2 | edcd egg2 | eage d2 d2 |
edcd egg2 | eaa2 egg2 | edcd egge | afge fedc ||
